X: 34269
T: Reinlender Etter Tobias Øyslebø
R: polka
M: 2/4
K: Amajor
(fg) (fe)|f2 A,2|(fg) (fe)|f2 A,2|f2 (ef)|(gf) e2|a2 (fg)|(ag) f2|
(fg) (fe)|f2 A,2|(fg) (fe)|f2 A,2|f2 (ef)|(gf) Bc|d2 d2|d3 c||
B2 B2|(Bd) (cB)|A2 (F_G)|(A_G) F2|_G2 (EF)|(_GF) E2|A2 (F_G)|(A_G) F2|
B2 B2|(Bd) (cB)|A2 (F_G)|(A_G) F2|_G2 (EF)|(_GF) A, ^B,|D2 D2|A,4||
(FG) (FE)|F2 D,2|(FG) (FE)|F2 D,2|F2 (EF)|(GF) E2|A2 (FG)|(AG) F2|
(FG) (FE)|F2 D,2|(FG) (FE)|F2 D,2|F2 (EF)|(GF) Bc|d2 d2|A,4||

